img/search/yama.svg

<svg width="384" height="107" viewBox="0 0 384 107" fill="none" xmlns="http://www.w3.org/2000/svg">
<g clip-path="url(#clip0_1267_9639)">
<g clip-path="url(#clip1_1267_9639)">
<path d="M192 107.044C298.039 107.044 384 83.0816 384 53.5221C384 23.9627 298.039 0 192 0C85.9613 0 0 23.9627 0 53.5221C0 83.0816 85.9613 107.044 192 107.044Z" fill="#888888"/>
<path d="M28.885 81.7146C62.6756 96.917 123.038 107.044 191.893 107.044C258.635 107.044 317.4 97.5283 351.717 83.0981C317.926 67.8964 257.564 57.7695 188.711 57.7695C121.968 57.7695 63.2036 67.2851 28.885 81.7146Z" fill="#404040"/>
<path d="M261.5 106C259.808 95.9205 271.858 90.8216 271.858 90.8216C253.486 93.7015 253.728 100.421 253.728 100.421C249.376 90.8216 253.728 73.0625 253.728 73.0625C245.75 82.902 245.267 93.48 245.267 93.48C226.411 77.1793 212.389 81.4621 212.389 81.4621C234.63 89.6217 231 106.5 231 106.5L261.5 106Z" fill="white"/>
<path d="M68.6284 100.824C68.6284 100.824 74.6018 90.9473 64.5664 85.0686C64.5664 85.0686 72.2124 83.2516 81.2921 94.1539C81.2921 94.1539 87.7434 87.4564 95.1505 88.4964C95.1505 88.4964 86.5487 94.3002 86.7876 103.645L68.6284 100.824Z" fill="white"/>
</g>
</g>
<defs>
<clipPath id="clip0_1267_9639">
<rect width="384" height="107" fill="white"/>
</clipPath>
<clipPath id="clip1_1267_9639">
<rect width="384" height="107" fill="white"/>
</clipPath>
</defs>
</svg>

<svg width="384" height="107" fill="none" xmlns="http://www.w3.org/2000/svg"><g clip-path="url(#clip0_1267_9639)"><g clip-path="url(#clip1_1267_9639)"><path d="M192 107.044c106.039 0 192-23.962 192-53.522S298.039 0 192 0 0 23.963 0 53.522c0 29.56 85.961 53.522 192 53.522z" fill="#888"/><path d="M28.885 81.715c33.79 15.202 94.153 25.329 163.008 25.329 66.742 0 125.507-9.516 159.824-23.946-33.791-15.202-94.153-25.328-163.006-25.328-66.743 0-125.507 9.515-159.826 23.945z" fill="#404040"/><path d="M261.5 106c-1.692-10.08 10.358-15.178 10.358-15.178-18.372 2.88-18.13 9.599-18.13 9.599-4.352-9.6 0-27.359 0-27.359-7.978 9.84-8.461 20.418-8.461 20.418-18.856-16.3-32.878-12.018-32.878-12.018C234.63 89.622 231 106.5 231 106.5l30.5-.5zm-192.872-5.176s5.974-9.877-4.062-15.755c0 0 7.646-1.817 16.726 9.085 0 0 6.451-6.698 13.858-5.658 0 0-8.601 5.804-8.362 15.149l-18.16-2.821z" fill="#fff"/></g></g><defs><clipPath id="clip0_1267_9639"><path fill="#fff" d="M0 0h384v107H0z"/></clipPath><clipPath id="clip1_1267_9639"><path fill="#fff" d="M0 0h384v107H0z"/></clipPath></defs></svg>
